X:1
T:Just Friends
L:1/4
M:4/4
K:G
"G7"B|:"Cma7"B4-|B2(3ABA|"Cm7"_E4-|"F7"E2 A2|
"Gma7"A4-|A A (3GAG|"Bbm7"_D4-|"Eb7"D3G|
"Am7"G>EG>E|"D7"F3 F|"Bm7"F>DF>D|"Em7"E F G B|
"A7"e2 B2-|B E (3EFG|"Am7"B2 A2-|"D7"A2 "Db7"B2|
"Cma7"B4-|B2(3ABA|"Cm7"_E4-|"F7"E2 A2|
"Gma7"A4-|A A (3GAG|"Bb7"_D4-|"Eb7"D3G|
"Am7"G>EG>E|"D7"F3 F|"Bm7"F>DF>D|"Em7"G A B d|
"A7"e3E|"Am7"d2 "D7"B2|"G6"G4|"Dm7"z2 "G7"B2 :|
